src/assets/svg/delete-bin.svg

<svg width="26" height="26" viewBox="0 0 26 26" fill="none" xmlns="http://www.w3.org/2000/svg">
<path d="M23.2198 5.35766C21.4049 5.18248 19.5899 5.0511 17.7637 4.95255V4.94161L17.5157 3.51825C17.3466 2.51095 17.0986 1 14.4607 1H11.5072C8.88057 1 8.63256 2.44526 8.45219 3.5073L8.21546 4.90876C7.16707 4.97445 6.11868 5.04015 5.07029 5.13869L2.7706 5.35766C2.29713 5.40146 1.95894 5.80657 2.00403 6.25547C2.04912 6.70438 2.45495 7.03285 2.92842 6.98905L5.22811 6.77007C11.1352 6.20073 17.0873 6.41971 23.062 7C23.0958 7 23.1184 7 23.1522 7C23.5806 7 23.9526 6.68248 23.9977 6.25547C24.0315 5.80657 23.6933 5.40146 23.2198 5.35766Z" fill="#F44748"/>
<path d="M20.6387 8.44171C20.3851 8.15856 20.0364 8 19.6772 8H6.32278C5.96356 8 5.60435 8.15856 5.36135 8.44171C5.11835 8.72485 4.981 9.10993 5.00213 9.50633L5.65717 21.1266C5.77339 22.8481 5.9213 25 9.60857 25H16.3914C20.0787 25 20.2266 22.8594 20.3428 21.1266L20.9979 9.51766C21.019 9.10993 20.8817 8.72485 20.6387 8.44171ZM14.7538 19.3258H11.2356C10.8024 19.3258 10.4432 18.9407 10.4432 18.4763C10.4432 18.012 10.8024 17.6269 11.2356 17.6269H14.7538C15.187 17.6269 15.5462 18.012 15.5462 18.4763C15.5462 18.9407 15.187 19.3258 14.7538 19.3258ZM15.6413 14.7955H10.3587C9.92552 14.7955 9.5663 14.4104 9.5663 13.946C9.5663 13.4817 9.92552 13.0966 10.3587 13.0966H15.6413C16.0745 13.0966 16.4337 13.4817 16.4337 13.946C16.4337 14.4104 16.0745 14.7955 15.6413 14.7955Z" fill="#F44748"/>
</svg>

<svg xmlns="http://www.w3.org/2000/svg" width="26" height="26" fill="none"><path fill="#F44748" d="M23.22 5.358c-1.815-.176-3.63-.307-5.456-.405v-.011l-.248-1.424C17.346 2.511 17.099 1 14.46 1h-2.954C8.881 1 8.633 2.445 8.452 3.507L8.215 4.91a98 98 0 0 0-3.145.23l-2.3.219a.83.83 0 0 0-.766.897c.045.45.451.778.924.734l2.3-.219c5.907-.57 11.86-.35 17.834.23h.09c.429 0 .8-.318.846-.745a.847.847 0 0 0-.778-.897m-2.581 3.083A1.3 1.3 0 0 0 19.677 8H6.323c-.36 0-.719.159-.962.442s-.38.668-.359 1.064l.655 11.62C5.773 22.849 5.921 25 9.61 25h6.782c3.688 0 3.836-2.14 3.952-3.873l.655-11.61a1.53 1.53 0 0 0-.36-1.075m-5.885 10.884h-3.518c-.434 0-.793-.385-.793-.85s.36-.85.793-.85h3.518c.433 0 .792.386.792.85 0 .465-.359.85-.792.85m.887-4.53H10.36c-.433 0-.793-.386-.793-.85s.36-.85.793-.85h5.282c.434 0 .793.386.793.85s-.36.85-.793.85"/></svg>
